ion/document-attach-sharp.svg

<svg viewBox="0 0 512 512" xmlns="http://www.w3.org/2000/svg"><g><path d="M280 240v0c-4.42 0-8-3.59-8-8V48h-57.25v0c-1.87-3.46-4.05-6.75-6.5-9.81C196.72 23.88 179.59 16 160 16c-37.68 0-64 29.61-64 72v144c0 25 20.34 40 40 40v0c21.85.23 39.76-17.29 40-39.14 0-.29 0-.58 0-.87v-152h-32v152 -.001c.14 4.27-3.22 7.85-7.5 8 -.17 0-.34 0-.51 0 -2.23 0-8-1.44-8-8v-144c0-19.34 8.41-40 32-40 29.69 0 32 30.15 32 39.38v138.75c0 17.45-5.47 33.23-15.41 44.46 -10.09 11.41-24.12 17.41-40.59 17.41 -16.47 0-30.5-6-40.59-17.41 -9.94-11.23-15.41-27.01-15.41-44.46v-82.13h-32v82.13c0 51.51 33.19 89.63 80 93.53v148.34 0c0 6.62 5.37 12 12 12h312v0c6.62 0 12-5.38 12-12v-228Z"/><path d="M308 208h146.31v0c1.1 0 2-.9 2-2 0-.53-.21-1.04-.59-1.42L307.4 56.26v0c-.79-.78-2.05-.78-2.83 0 -.38.37-.59.88-.59 1.41v146.31 0c0 2.2 1.79 4 4 4Z"/></g></svg>

<svg xmlns="http://www.w3.org/2000/svg" width="512" height="512" viewBox="0 0 512 512"><path d="M280,240a8,8,0,0,1-8-8V48H214.75a65.42,65.42,0,0,0-6.5-9.81C196.72,23.88,179.59,16,160,16c-37.68,0-64,29.61-64,72V232c0,25,20.34,40,40,40a39.57,39.57,0,0,0,40-40V80H144V232a7.75,7.75,0,0,1-8,8c-2.23,0-8-1.44-8-8V88c0-19.34,8.41-40,32-40,29.69,0,32,30.15,32,39.38V226.13c0,17.45-5.47,33.23-15.41,44.46C166.5,282,152.47,288,136,288s-30.5-6-40.59-17.41C85.47,259.36,80,243.58,80,226.13V144H48v82.13c0,51.51,33.19,89.63,80,93.53V468a12,12,0,0,0,12,12H452a12,12,0,0,0,12-12V240Z"/><path d="M308,208H454.31a2,2,0,0,0,1.42-3.41L307.41,56.27A2,2,0,0,0,304,57.69V204A4,4,0,0,0,308,208Z"/></svg>
